X: 33898
T: Red Mill, The
R: reel
M: 4/4
K: Gdorian
F|D2 GF GDDc|BGAF GDDF|C2FE FCCF|AFGE FCCF|
D2 GF GDDc|BGAF Gg g/g/g|fdcB AFAc|(d/c/=B) cA BGG:|
F|:G2 gf gddg|bgaf gddf|c2 fe fccf|afge fccf|
d2 gf gddg|bgaf g2 de|fdcB AFAc|(d/c/=B) cABGG2:|

